X:18597
T:Wertenburg Waltz. CJF.141
M:3/8
L:1/16
Q:50
S: C.J.Fox MS, 1829/33, Beverley,E.Yorks.
R:Waltz
O:England
A:East Yorkshire
B:Kidson Coll.Mitchell Lib.M1805
N:In the MS, the third section begins with the two lead-notes shown. -
N:PJH
Z:P J Headford 2000
K:G
D2"$"|G2G2B2|d2d2g2|efgfge|d4B2|cBcdec|\
BABcdB|ABcAGF|G4:||:!FG|A2A2d2|
B2B2d2|^c2c2d2|d4de|f2d2d2|g2f2e2|abagfe|\
dedcBA"$"||!GA|B2B2B2|BABGAB|
cdedcB|BAGDGA|B2B2B2|BABcdB|cdecAF|G4:||


